X:67
T:Murphy's Reel
R:reel
C:Charlie Mulvihill
D:Paddy Moloney & Sean Potts: Tin Whistles.
Z:id:hn-reel-67
M:C|
K:D
AF~F2 G2FG|AF~F2 EGFE|D2FA dfec|dBAF E2FG|
AF~F2 G2FG|AF~F2 EGFE|D2FA dfec|1 dBAF D2dB:|2 dBAF D4||
|:~f3a g2fg|afdf edBd|~f3e dfec|dBAF E2fg|
af~f2 bf~f2|afdf edBd|~f3e dfec|1 dBAF D4:|2 dBAF D2dB||
P:variations
|:{c}AF~F2 ~G3A|~A2FD EGFE|D2FA dfec|dB{c}AF E2dB|
{c}AF~F2 ~G3B|{c}AF~F2 EGFE|D2FA dfec|1 dB{c}AF D2dB:|2 dB{c}AF D4||
|:~f3g ~g2fg|{c'}afde {a}ed (3Bcd|~f3e de{a}ec|dB{c}AF E2fg|
{c'}af~f2 bf~f2|{c'}afde {a}ed (3Bcd|~f3e de{a}ec|1 dB{c}AF D4:|2 dB{c}AF D2dB||
<end>
<start>
